X: 21984
T: Kitty Of Oulart
R: jig
M: 6/8
K: Dmajor
fad fed|fad fed|b2 g a2 f|e>fe efg|
fad fed|f/g/ad fed|b2 g afa|d>ed d2:|
d2 d efg|fed cBA|B<dB AFD|E>FE E2 A|
dcd ee/f/g|fed cBA|B<dB AFA|D>ED D2:|

